public/static/img/user/verify.svg

<svg width="24" height="24" viewBox="0 0 24 24" fill="none" xmlns="http://www.w3.org/2000/svg">
<path d="M9.59048 11.181C9.44019 11.0307 9.23635 10.9462 9.02381 10.9462C8.81127 10.9462 8.60743 11.0307 8.45714 11.181C8.30685 11.3312 8.22242 11.5351 8.22242 11.7476C8.22242 11.9602 8.30685 12.164 8.45714 12.3143L11.3143 15.1714C11.4571 15.3139 11.6506 15.3939 11.8524 15.3939C12.0541 15.3939 12.2476 15.3139 12.3905 15.1714L17.381 10.181C17.5234 10.0381 17.6035 9.84461 17.6035 9.64286C17.6035 9.44111 17.5234 9.24759 17.381 9.10476L17.3143 9.03809C17.1715 8.89561 16.9779 8.81559 16.7762 8.81559C16.5744 8.81559 16.3809 8.89561 16.2381 9.03809L11.9238 13.5143L9.59048 11.181ZM19.5333 13.4286C19.5333 15.275 18.7998 17.0458 17.4942 18.3514C16.1886 19.657 14.4178 20.3905 12.5714 20.3905C10.725 20.3905 8.95423 19.657 7.64862 18.3514C6.34301 17.0458 5.60952 15.275 5.60952 13.4286V6.06667L12.5714 3.60952L19.5333 6.06667V13.4286ZM12.5714 2L4 4.85714V13.4286C4 15.7019 4.90306 17.882 6.51051 19.4895C8.11797 21.0969 10.2981 22 12.5714 22C14.8447 22 17.0249 21.0969 18.6323 19.4895C20.2398 17.882 21.1429 15.7019 21.1429 13.4286V4.85714L12.5714 2Z" fill="white"/>
</svg>

<svg width="24" height="24" fill="none" xmlns="http://www.w3.org/2000/svg"><path d="M9.59 11.181a.801.801 0 1 0-1.133 1.133l2.857 2.857a.762.762 0 0 0 1.076 0l4.991-4.99a.762.762 0 0 0 0-1.076l-.067-.067a.762.762 0 0 0-1.076 0l-4.314 4.476-2.334-2.333Zm9.943 2.248a6.962 6.962 0 0 1-13.923 0V6.067l6.96-2.457 6.962 2.457v7.362ZM12.571 2 4 4.857v8.572a8.571 8.571 0 0 0 17.143 0V4.857L12.57 2Z" fill="#fff"/></svg>
